X:442
T: Was sollen die Soldaten essen? (158), S. 345
N: T0330
O: Luxemburg
S: Singendes Volk, Esch-Alzette 1937, posth.]
N: Junglinster, Vater des Versfassers, vor 1900
R: historische, Kriegs- und Soldatenlieder]
M: 4/4
L: 1/8
K: G
G2 | GGGGG2G2 | G2D2z2
DD | B2B2A2A2 | G2z4
d2 | cBABB2D2
BABce2d2 | d2G2z2
GG | GGGGG2
EE | E2E2D2
D2 | B4G2DD | E4D2

